X:1
T:Canon in D
T:Canon in D
%%score 1 2 3 4
L:1/8
Q:1/4=80
M:4/4
K:D
V:1 treble nm="Flute" snm="Fl."
V:2 treble nm="Flute" snm="Fl."
V:3 treble nm="Flute" snm="Fl."
V:4 treble nm="Flute" snm="Fl."
V:1
!f! z8 | z8 | z8 | z8 | f4 e4 | d4 c4 | B4 A4 | B4 c4 | d4 c4 | B4 A4 | G4 F4 | G4 E4 | %12
 D2 F2 A2 G2 | F2 D2 F2 E2 | D2 B,2 D2 A2 | G2 B2 A2 G2 | DEFG AEAG | FBAG AGFE | D2 Bc dcBA | %19
 GFEB ABAG | z8 | z8 | B2 G2 A2 F2 | D2 d2 Td3 c | dcdd caef | ebag"_cresc." afab | %26
!fff! gfeg fedc | BAGF EGFE | D2 F2 A2 G2 | F2 D2 F2 E2 | D2 B,2 D2 A2 | G2 B2 A2 G2 | F8 |] %33
V:2
!f! z8 | z8 | z8 | z8 | z8 | z8 | z8 | z8 | f4 e4 | d4 c4 | B4 A4 | B4 c4 | d4 c4 | B4 A4 | G4 F4 | %15
 G4 E4 | D2 F2 A2 G2 | F2 D2 F2 E2 | D2 G2 D2 A2 | G2 B2 A2 G2 | F2 D2 E2 c2 | d2 f2 a2 A2 | %22
 gfeg fedc | BAGF EGFE | DEFG AEAG | FBAG AGFE | D2 Bc dcBA | GFEB ABAG |!f! d4 c4 | B4 A4 | %30
 G4 F4 | G4 E4 | F8 |] %33
V:3
 z8 | z8 | z8 | z8 | z8 | z8 | z8 | z8 | z8 | z8 | z8 | z8 | f4 e4 | d4 c4 | B4 A4 | B4 c4 | %16
 d4 c4 | B4 A4 | G4 F4 | G4 E4 | D2 F2 A2 G2 | F2 D2 F2 E2 | D2 G2 D2 A2 | G2 B2 A2 G2 | %24
 F2 D2 E2 c2 | d2 f2 a2 A2 | B2 G2 A2 F2 | D2 d2 Td3 c | f4 e4 | d4 c4 | B4 A4 | B4 c4 | d8 |] %33
V:4
!p! d4 A4 | B4 F4 | G4 D4 | G4 A4 | d4 A4 | B4 F4 | G4 D4 | G4 A4 | d4 A4 | B4 F4 | G4 D4 | G4 A4 | %12
 d4 A4 | B4 F4 | G4 D4 | G4 A4 | d4 A4 | B4 F4 | G4 D4 | G4 A4 | d4 A4 | B4 F4 | G4 D4 | G4 A4 | %24
 d4 A4 | B4 F4 | G4 D4 | G4 A4 | d4 A4 | B4 F4 | G4 D4 | G4 A4 | B8 |] %33

